build/service/SentOutline.svg

<svg xmlns="http://www.w3.org/2000/svg" fill="none" viewBox="0 0 24 24" focusable="false"><path d="M0 0H24V24H0z"/><path fill="#74767B" d="M10.504 16.5466C10.784 16.8266 11.244 16.8166 11.514 16.5266L17.9911 9.54117C18.2311 9.27117 18.2111 8.86117 17.9511 8.62117C17.6911 8.38117 17.2711 8.39117 17.0311 8.66117L10.984 15.1866L7.13924 11.3914C6.88924 11.1414 6.46924 11.1414 6.21924 11.3914C5.96924 11.6414 5.96924 12.0614 6.21924 12.3114L10.504 16.5466Z"/></svg>

<svg xmlns="http://www.w3.org/2000/svg" fill="none" viewBox="0 0 24 24" focusable="false"><path fill="#74767B" d="M10.5 16.54c.28.28.74.27 1.01-.02l6.48-6.98c.24-.27.22-.68-.04-.92a.65.65 0 0 0-.92.04l-6.05 6.52-3.85-3.79a.66.66 0 0 0-.92 0c-.25.25-.25.67 0 .92z"/></svg>
